chat/images/apps/wechat.svg

<?xml version="1.0" encoding="UTF-8" standalone="no"?>
<svg width="26px" height="26px" viewBox="0 0 26 26" version="1.1" xmlns="http://www.w3.org/2000/svg" xmlns:xlink="http://www.w3.org/1999/xlink" xmlns:sketch="http://www.bohemiancoding.com/sketch/ns">
    <!-- Generator: Sketch 3.4.4 (17249) - http://www.bohemiancoding.com/sketch -->
    <title>WeChat</title>
    <desc>Created with Sketch.</desc>
    <defs></defs>
    <g id="Page-1" stroke="none" stroke-width="1" fill="none" fill-rule="evenodd" sketch:type="MSPage">
        <g id="WeChat" sketch:type="MSArtboardGroup">
            <g sketch:type="MSLayerGroup" transform="translate(1.000000, 1.000000)">
                <ellipse id="Background" fill="#1ECE29" sketch:type="MSShapeGroup" cx="12" cy="12" rx="12" ry="12"></ellipse>
                <path d="M18.6371038,17.7456087 L18.6707357,17.6890572 L18.1759949,16.6982344 C19.0912027,16.0006791 19.6666667,14.989683 19.6666667,13.8648649 C19.6666667,11.7602122 17.651948,10.0540541 15.1666667,10.0540541 C12.6813853,10.0540541 10.6666667,11.7602122 10.6666667,13.8648649 C10.6666667,15.9695176 12.6813853,17.6756757 15.1666667,17.6756757 C15.8858339,17.6756757 16.5655984,17.53281 17.1685445,17.278764 L18.3606939,17.9268945 C18.390493,17.9709327 18.4417577,18 18.5,18 C18.5920475,18 18.6666667,17.9273975 18.6666667,17.8378378 C18.6666667,17.8035742 18.6557449,17.7717925 18.6371038,17.7456087 Z" id="Oval-21" fill="#FFFFFF" sketch:type="MSShapeGroup"></path>
                <ellipse id="Oval-23" fill="#1ECE29" sketch:type="MSShapeGroup" cx="13.6666667" cy="12.4864865" rx="0.666666667" ry="0.648648649"></ellipse>
                <ellipse id="Oval-24" fill="#1ECE29" sketch:type="MSShapeGroup" cx="16.8333333" cy="12.4864865" rx="0.666666667" ry="0.648648649"></ellipse>
                <path d="M10.4903601,14.9143283 C10.4106896,14.9173778 10.3305567,14.9189189 10.25,14.9189189 C9.542554,14.9189189 8.86778981,14.8000616 8.25187425,14.5845735 L6.79829623,15.5048868 C6.76780162,15.5430295 6.72017933,15.5675676 6.66666667,15.5675676 C6.57461921,15.5675676 6.5,15.4949651 6.5,15.4054054 C6.5,15.3541137 6.52447484,15.3083839 6.56268138,15.2786688 L7.0655381,14.0051777 C5.80998973,13.190338 5,11.9052468 5,10.4594595 C5,7.99656801 7.35050506,6 10.25,6 C12.8594253,6 15.0242098,7.6170712 15.4312302,9.73581937 C15.3436419,9.731777 15.2554337,9.72972973 15.1666667,9.72972973 C12.4972904,9.72972973 10.3333333,11.5810928 10.3333333,13.8648649 C10.3333333,14.2274808 10.3878886,14.5791953 10.4903601,14.9143283 Z" id="Oval-22" fill="#FFFFFF" sketch:type="MSShapeGroup"></path>
                <ellipse id="Oval-26" fill="#1ECE29" sketch:type="MSShapeGroup" cx="8.33333333" cy="9.08108108" rx="0.666666667" ry="0.648648649"></ellipse>
                <ellipse id="Oval-25" fill="#1ECE29" sketch:type="MSShapeGroup" cx="12.3333333" cy="9.08108108" rx="0.666666667" ry="0.648648649"></ellipse>
            </g>
        </g>
    </g>
</svg>

<svg xmlns="http://www.w3.org/2000/svg" viewBox="0 0 26 26">
  <g fill="none" fill-rule="evenodd" transform="translate(1 1)">
    <ellipse cx="12" cy="12" fill="#1ECE29" rx="12" ry="12"/>
    <path fill="#FFF" d="M18.637 17.746l.034-.057-.494-.992c.915-.697 1.49-1.708 1.49-2.833 0-2.105-2.014-3.81-4.5-3.81-2.485 0-4.5 1.705-4.5 3.81s2.015 3.81 4.5 3.81c.72 0 1.4-.142 2.003-.396l1.19.647c.03.044.082.073.14.073.092 0 .167-.073.167-.162 0-.034-.01-.066-.03-.092z"/>
    <ellipse cx="13.667" cy="12.486" fill="#1ECE29" rx=".667" ry=".649"/>
    <ellipse cx="16.833" cy="12.486" fill="#1ECE29" rx=".667" ry=".649"/>
    <path fill="#FFF" d="M10.49 14.914c-.08.003-.16.005-.24.005-.707 0-1.382-.12-1.998-.335l-1.454.92c-.03.038-.078.063-.13.063-.093 0-.168-.073-.168-.163 0-.05.024-.097.063-.126l.503-1.275C5.81 13.19 5 11.905 5 10.46 5 7.996 7.35 6 10.25 6c2.61 0 4.774 1.617 5.18 3.736-.086-.004-.175-.006-.263-.006-2.67 0-4.834 1.85-4.834 4.135 0 .362.055.714.157 1.05z"/>
    <ellipse cx="8.333" cy="9.081" fill="#1ECE29" rx=".667" ry=".649"/>
    <ellipse cx="12.333" cy="9.081" fill="#1ECE29" rx=".667" ry=".649"/>
  </g>
</svg>
